Sharp_LQ140M1.cal
CAL
DESCRIPTOR "Sharp LQ140M1 Custom Calibration"
KEYWORD "DEVICE_CLASS"
DEVICE_CLASS "DISPLAY"
NUMBER_OF_FIELDS 4
BEGIN_DATA_FORMAT
RGB_I RGB_R RGB_G RGB_B
END_DATA_FORMAT
NUMBER_OF_SETS 256
BEGIN_DATA
0.000000 0.000000 0.000000 0.000000
0.003922 0.002930 0.002871 0.002549
0.007843 0.006077 0.005955 0.005287
0.011765 0.009312 0.009126 0.008101
0.015686 0.012605 0.012353 0.010966
0.019608 0.015943 0.015624 0.013870
0.023529 0.019316 0.018929 0.016805
0.027451 0.022718 0.022264 0.019765
0.031373 0.026147 0.025624 0.022748
0.035294 0.029598 0.029006 0.025750
0.039216 0.033070 0.032408 0.028771
0.043137 0.036560 0.035829 0.031807
0.047059 0.040066 0.039265 0.034858
0.050980 0.043588 0.042717 0.037922
0.054902 0.047125 0.046182 0.040999
0.058824 0.050675 0.049661 0.044087
0.062745 0.054237 0.053152 0.047186
0.066667 0.057811 0.056655 0.050295
0.070588 0.061396 0.060168 0.053414
0.074510 0.064991 0.063692 0.056543
0.078431 0.068597 0.067225 0.059679
0.082353 0.072212 0.070768 0.062824
0.086275 0.075836 0.074319 0.065977
0.090196 0.079469 0.077880 0.069138
0.094118 0.083110 0.081448 0.072306
0.098039 0.086759 0.085024 0.075481
0.101961 0.090416 0.088608 0.078662
0.105882 0.094080 0.092199 0.081850
0.109804 0.097752 0.095797 0.085044
0.113725 0.101430 0.099401 0.088244
0.117647 0.105115 0.103013 0.091450
0.121569 0.108806 0.106630 0.094662
0.125490 0.112504 0.110254 0.097879
0.129412 0.116208 0.113884 0.101101
0.133333 0.119918 0.117519 0.104328
0.137255 0.123633 0.121160 0.107561
0.141176 0.127354 0.124807 0.110798
0.145098 0.131081 0.128459 0.114040
0.149020 0.134812 0.132116 0.117287
0.152941 0.138549 0.135778 0.120538
0.156863 0.142291 0.139446 0.123794
0.160784 0.146038 0.143118 0.127053
0.164706 0.149790 0.146794 0.130317
0.168627 0.153547 0.150476 0.133586
0.172549 0.157308 0.154162 0.136858
0.176471 0.161073 0.157852 0.140134
0.180392 0.164843 0.161546 0.143414
0.184314 0.168618 0.165245 0.146697
0.188235 0.172396 0.168948 0.149985
0.192157 0.176179 0.172655 0.153276
0.196078 0.179966 0.176366 0.156570
0.200000 0.183756 0.180081 0.159868
0.203922 0.187551 0.183800 0.163304
0.207843 0.191349 0.187522 0.166749
0.211765 0.195152 0.191249 0.170203
0.215686 0.198958 0.194978 0.173665
0.219608 0.202767 0.198712 0.177136
0.223529 0.206580 0.202449 0.180616
0.227451 0.210397 0.206189 0.184104
0.231373 0.214217 0.209933 0.187601
0.235294 0.218041 0.213680 0.191106
0.239216 0.221868 0.217430 0.194620
0.243137 0.225698 0.221184 0.198142
0.247059 0.229532 0.224941 0.201673
0.250980 0.233368 0.228701 0.205212
0.254902 0.237208 0.232464 0.208759
0.258824 0.241051 0.236230 0.212314
0.262745 0.244897 0.239999 0.215878
0.266667 0.248746 0.243771 0.219449
0.270588 0.252598 0.247546 0.223029
0.274510 0.256453 0.251324 0.226618
0.278431 0.260311 0.255105 0.230214
0.282353 0.264172 0.258888 0.233818
0.286275 0.268035 0.262675 0.237430
0.290196 0.271902 0.266464 0.241051
0.294118 0.275771 0.270256 0.244679
0.298039 0.279643 0.274050 0.248315
0.301961 0.283517 0.277847 0.251960
0.305882 0.287394 0.281647 0.255612
0.309804 0.291274 0.285449 0.259272
0.313725 0.295157 0.289253 0.262940
0.317647 0.299041 0.293061 0.266616
0.321569 0.302929 0.296870 0.270300
0.325490 0.306819 0.300682 0.273991
0.329412 0.310711 0.304497 0.277691
0.333333 0.314606 0.308314 0.281398
0.337255 0.318503 0.312133 0.285113
0.341176 0.322403 0.315955 0.288835
0.345098 0.326305 0.319779 0.292565
0.349020 0.330209 0.323605 0.296303
0.352941 0.334116 0.327434 0.300049
0.356863 0.338025 0.331264 0.303803
0.360784 0.341936 0.335097 0.307564
0.364706 0.345849 0.338932 0.311332
0.368627 0.349765 0.342770 0.315109
0.372549 0.353683 0.346609 0.318893
0.376471 0.357603 0.350451 0.322684
0.380392 0.361525 0.354295 0.326483
0.384314 0.365449 0.358140 0.330290
0.388235 0.369376 0.361988 0.334104
0.392157 0.373304 0.365838 0.337926
0.396078 0.377235 0.369690 0.341755
0.400000 0.381167 0.373544 0.345592
0.403922 0.385102 0.377400 0.349436
0.407843 0.389039 0.381258 0.353288
0.411765 0.392977 0.385118 0.357147
0.415686 0.396918 0.388980 0.361014
0.419608 0.400860 0.392843 0.364888
0.423529 0.404805 0.396709 0.368769
0.427451 0.408751 0.400576 0.372658
0.431373 0.412700 0.404446 0.376555
0.435294 0.416650 0.408317 0.380459
0.439216 0.420602 0.412190 0.384370
0.443137 0.424556 0.416065 0.388288
0.447059 0.428512 0.419942 0.392214
0.450980 0.432469 0.423820 0.396148
0.454902 0.436429 0.427700 0.400088
0.458824 0.440390 0.431582 0.404036
0.462745 0.444353 0.435466 0.407992
0.466667 0.448318 0.439352 0.411954
0.470588 0.452284 0.443239 0.415924
0.474510 0.456253 0.447128 0.419902
0.478431 0.460223 0.451018 0.423886
0.482353 0.464194 0.454911 0.427878
0.486275 0.468168 0.458804 0.431877
0.490196 0.472143 0.462700 0.435884
0.494118 0.476120 0.466597 0.439897
0.498039 0.480098 0.470496 0.443918
0.501961 0.484078 0.474397 0.447598
0.505882 0.488060 0.478299 0.450929
0.509804 0.492043 0.482202 0.454256
0.513725 0.496028 0.486108 0.457578
0.517647 0.500015 0.490015 0.460896
0.521569 0.504003 0.493923 0.464210
0.525490 0.507993 0.497833 0.467519
0.529412 0.511984 0.501744 0.470825
0.533333 0.515977 0.505657 0.474125
0.537255 0.519971 0.509572 0.477422
0.541176 0.523967 0.513488 0.480714
0.545098 0.527965 0.517405 0.484002
0.549020 0.531964 0.521324 0.487286
0.552941 0.535964 0.525245 0.490565
0.556863 0.539966 0.529167 0.493840
0.560784 0.543970 0.533090 0.497110
0.564706 0.547974 0.537015 0.500376
0.568627 0.551981 0.540941 0.503637
0.572549 0.555989 0.544869 0.506895
0.576471 0.559998 0.548798 0.510147
0.580392 0.564009 0.552729 0.513395
0.584314 0.568021 0.556660 0.516639
0.588235 0.572034 0.560594 0.519878
0.592157 0.576049 0.564528 0.523113
0.596078 0.580066 0.568464 0.526343
0.600000 0.584084 0.572402 0.529569
0.603922 0.588103 0.576341 0.532790
0.607843 0.592123 0.580281 0.536007
0.611765 0.596145 0.584222 0.539219
0.615686 0.600168 0.588165 0.542427
0.619608 0.604193 0.592109 0.545630
0.623529 0.608219 0.596055 0.548828
0.627451 0.612246 0.600001 0.552022
0.631373 0.616275 0.603949 0.555211
0.635294 0.620305 0.607899 0.558396
0.639216 0.624336 0.611849 0.561576
0.643137 0.628368 0.615801 0.564751
0.647059 0.632402 0.619754 0.567922
0.650980 0.636437 0.623709 0.571088
0.654902 0.640474 0.627664 0.574250
0.658824 0.644511 0.631621 0.577406
0.662745 0.648550 0.635579 0.580559
0.666667 0.652591 0.639539 0.583706
0.670588 0.656632 0.643499 0.586849
0.674510 0.660675 0.647461 0.589987
0.678431 0.664719 0.651424 0.593120
0.682353 0.668764 0.655388 0.596249
0.686275 0.672810 0.659354 0.599373
0.690196 0.676858 0.663321 0.602492
0.694118 0.680906 0.667288 0.605606
0.698039 0.684956 0.671257 0.608716
0.701961 0.689008 0.675228 0.611821
0.705882 0.693060 0.679199 0.614921
0.709804 0.697114 0.683171 0.618016
0.713725 0.701168 0.687145 0.621107
0.717647 0.705224 0.691120 0.624193
0.721569 0.709281 0.695096 0.627274
0.725490 0.713340 0.699073 0.630350
0.729412 0.717399 0.703051 0.633421
0.733333 0.721460 0.707030 0.636488
0.737255 0.725521 0.711011 0.639549
0.741176 0.729584 0.714992 0.642606
0.745098 0.733648 0.718975 0.645658
0.749020 0.737713 0.722959 0.648705
0.752941 0.741779 0.726944 0.651748
0.756863 0.745847 0.730930 0.654785
0.760784 0.749915 0.734917 0.657818
0.764706 0.753985 0.738905 0.660845
0.768627 0.758055 0.742894 0.663868
0.772549 0.762127 0.746885 0.666886
0.776471 0.766200 0.750876 0.669899
0.780392 0.770274 0.754868 0.672907
0.784314 0.774349 0.758862 0.675910
0.788235 0.778425 0.762856 0.678909
0.792157 0.782502 0.766852 0.681902
0.796078 0.786580 0.770849 0.684890
0.800000 0.790659 0.774846 0.687874
0.803922 0.794740 0.778845 0.691424
0.807843 0.798821 0.782845 0.694974
0.811765 0.802903 0.786845 0.698526
0.815686 0.806987 0.790847 0.702079
0.819608 0.811071 0.794850 0.705632
0.823529 0.815157 0.798854 0.709186
0.827451 0.819243 0.802858 0.712742
0.831373 0.823331 0.806864 0.716298
0.835294 0.827419 0.810871 0.719855
0.839216 0.831509 0.814879 0.723413
0.843137 0.835600 0.818888 0.726972
0.847059 0.839691 0.822897 0.730531
0.850980 0.843784 0.826908 0.734092
0.854902 0.847877 0.830920 0.737653
0.858824 0.851972 0.834932 0.741215
0.862745 0.856067 0.838946 0.744779
0.866667 0.860164 0.842961 0.748342
0.870588 0.864261 0.846976 0.751907
0.874510 0.868360 0.850993 0.755473
0.878431 0.872459 0.855010 0.759039
0.882353 0.876560 0.859028 0.762607
0.886275 0.880661 0.863048 0.766175
0.890196 0.884763 0.867068 0.769744
0.894118 0.888866 0.871089 0.773314
0.898039 0.892971 0.875111 0.776884
0.901961 0.897076 0.879134 0.780456
0.905882 0.901182 0.883158 0.784028
0.909804 0.905289 0.887183 0.787601
0.913725 0.909397 0.891209 0.791175
0.917647 0.913506 0.895236 0.794750
0.921569 0.917615 0.899263 0.798325
0.925490 0.921726 0.903292 0.801902
0.929412 0.925838 0.907321 0.805479
0.933333 0.929950 0.911351 0.809057
0.937255 0.934064 0.915383 0.812636
0.941176 0.938178 0.919415 0.816215
0.945098 0.942293 0.923448 0.819795
0.949020 0.946410 0.927481 0.823376
0.952941 0.950527 0.931516 0.826958
0.956863 0.954645 0.935552 0.830541
0.960784 0.958763 0.939588 0.834124
0.964706 0.962883 0.943626 0.837708
0.968627 0.967004 0.947664 0.841293
0.972549 0.971125 0.951703 0.844879
0.976471 0.975248 0.955743 0.848465
0.980392 0.979371 0.959783 0.852053
0.984314 0.983495 0.963825 0.855641
0.988235 0.987620 0.967868 0.859229
0.992157 0.991746 0.971911 0.862819
0.996078 0.995872 0.975955 0.866409
1.000000 1.000000 0.980000 0.870000
END_DATA
